assets/svg/icon_feed_stories.svg

<svg width="24" height="24" viewBox="0 0 24 24" fill="none" xmlns="http://www.w3.org/2000/svg">
<g id="icon/feed/stories">
<path id="Vector" fill-rule="evenodd" clip-rule="evenodd" d="M10.4577 20.0625H10.5C10.8106 20.0625 11.0625 19.8107 11.0625 19.5C11.0625 19.1893 10.8106 18.9375 10.5 18.9375C9.06988 18.9375 8.05388 18.9363 7.28314 18.8327C6.52857 18.7312 6.09383 18.541 5.77643 18.2236C5.45902 17.9062 5.26877 17.4714 5.16732 16.7169C5.06369 15.9461 5.0625 14.9301 5.0625 13.5C5.0625 13.1894 4.81066 12.9375 4.5 12.9375C4.18934 12.9375 3.9375 13.1894 3.9375 13.5V13.5423C3.93749 14.9206 3.93748 16.0124 4.05236 16.8668C4.17057 17.7461 4.41966 18.4578 4.98093 19.0191C5.54221 19.5803 6.25392 19.8294 7.13324 19.9476C7.98764 20.0625 9.07936 20.0625 10.4577 20.0625ZM16.7169 18.8327C15.9461 18.9363 14.9301 18.9375 13.5 18.9375C13.1893 18.9375 12.9375 19.1893 12.9375 19.5C12.9375 19.8107 13.1893 20.0625 13.5 20.0625H13.5423C14.9206 20.0625 16.0123 20.0625 16.8667 19.9476C17.746 19.8294 18.4578 19.5803 19.0191 19.0191C19.5803 18.4578 19.8294 17.7461 19.9477 16.8668C20.0625 16.0124 20.0625 14.9206 20.0625 13.5423V13.5C20.0625 13.1894 19.8106 12.9375 19.5 12.9375C19.1893 12.9375 18.9375 13.1894 18.9375 13.5C18.9375 14.9301 18.9363 15.9461 18.8326 16.7169C18.7312 17.4714 18.541 17.9062 18.2236 18.2236C17.9062 18.541 17.4714 18.7312 16.7169 18.8327ZM10.123 16.2901C9.96496 16.3113 9.74446 16.3125 9.375 16.3125C8.82877 16.3125 8.47568 16.3113 8.21552 16.2763C7.97154 16.2435 7.89507 16.1906 7.85225 16.1477C7.80943 16.1049 7.75648 16.0285 7.72367 15.7845C7.68869 15.5243 7.6875 15.1712 7.6875 14.625C7.6875 14.2555 7.68869 14.035 7.70994 13.877C7.71968 13.8046 7.73115 13.7683 7.73787 13.752C7.73942 13.7482 7.74139 13.7443 7.74139 13.7443L7.74243 13.7424L7.74425 13.7414C7.74425 13.7414 7.74819 13.7394 7.75198 13.7379C7.76831 13.7312 7.80458 13.7197 7.87699 13.7099C8.03504 13.6887 8.25554 13.6875 8.625 13.6875H9.375C9.74446 13.6875 9.96496 13.6887 10.123 13.7099C10.1954 13.7197 10.2317 13.7312 10.248 13.7379C10.2518 13.7394 10.2557 13.7414 10.2557 13.7414L10.2576 13.7424L10.2586 13.7443C10.2586 13.7443 10.2606 13.7482 10.2621 13.752C10.2688 13.7683 10.2803 13.8046 10.2901 13.877C10.3113 14.035 10.3125 14.2555 10.3125 14.625V15.375C10.3125 15.7445 10.3113 15.965 10.2901 16.123C10.2803 16.1954 10.2688 16.2317 10.2621 16.248L10.2608 16.2511C10.2599 16.2532 10.2586 16.2557 10.2586 16.2557L10.2576 16.2576L10.2557 16.2586C10.2557 16.2586 10.2518 16.2606 10.248 16.2621C10.2317 16.2688 10.1954 16.2803 10.123 16.2901ZM10.2729 17.405C10.5395 17.3692 10.8213 17.2848 11.053 17.0531C11.2849 16.8213 11.3692 16.5395 11.405 16.2729C11.4376 16.0308 11.4376 15.7332 11.4375 15.4086C11.4375 15.3974 11.4375 15.3862 11.4375 15.375V14.625C11.4375 14.6138 11.4375 14.6026 11.4375 14.5914C11.4376 14.2668 11.4376 13.9692 11.405 13.7271C11.3692 13.4605 11.2849 13.1787 11.053 12.947C10.8213 12.7151 10.5395 12.6308 10.2729 12.595C10.0308 12.5624 9.73317 12.5624 9.40855 12.5625C9.3974 12.5625 9.38622 12.5625 9.375 12.5625H8.625C8.61378 12.5625 8.6026 12.5625 8.59144 12.5625C8.26683 12.5624 7.96921 12.5624 7.72709 12.595C7.46048 12.6308 7.17869 12.7151 6.94692 12.947C6.71515 13.1787 6.63082 13.4605 6.59498 13.7271C6.56243 13.9692 6.56246 14.2668 6.5625 14.5914C6.5625 14.6026 6.5625 14.6138 6.5625 14.625V14.662C6.56247 15.1607 6.56245 15.5903 6.60871 15.9344C6.65828 16.3031 6.77007 16.6566 7.05676 16.9432C7.34344 17.2299 7.69689 17.3417 8.06562 17.3913C8.40968 17.4376 8.83932 17.4375 9.33796 17.4375H9.375C9.38622 17.4375 9.39741 17.4375 9.40856 17.4375C9.73318 17.4375 10.0308 17.4376 10.2729 17.405ZM14.5915 17.4375H14.662C15.1606 17.4375 15.5903 17.4376 15.9343 17.3913C16.3031 17.3417 16.6565 17.2299 16.9432 16.9432C17.2299 16.6566 17.3417 16.3031 17.3913 15.9344C17.4376 15.5903 17.4375 15.1607 17.4375 14.662V14.5914C17.4376 14.2668 17.4376 13.9692 17.405 13.7271C17.3692 13.4605 17.2849 13.1787 17.053 12.947C16.8213 12.7151 16.5395 12.6308 16.2729 12.595C16.0308 12.5624 15.7332 12.5624 15.4085 12.5625H14.5915C14.2668 12.5624 13.9692 12.5624 13.7271 12.595C13.4605 12.6308 13.1787 12.7151 12.9469 12.947C12.7151 13.1787 12.6308 13.4605 12.595 13.7271C12.5624 13.9692 12.5624 14.2668 12.5625 14.5914V15.4086C12.5624 15.7332 12.5624 16.0308 12.595 16.2729C12.6308 16.5395 12.7151 16.8213 12.9469 17.0531C13.1787 17.2848 13.4605 17.3692 13.7271 17.405C13.9692 17.4376 14.2668 17.4375 14.5915 17.4375ZM13.7443 16.2586L13.7424 16.2576L13.7414 16.2557C13.7414 16.2557 13.7394 16.2518 13.7379 16.248C13.7311 16.2317 13.7197 16.1954 13.7099 16.123C13.6887 15.965 13.6875 15.7445 13.6875 15.375V14.625C13.6875 14.2555 13.6887 14.035 13.7099 13.877C13.7197 13.8046 13.7311 13.7683 13.7379 13.752C13.7394 13.7482 13.7414 13.7443 13.7414 13.7443L13.7424 13.7424L13.7443 13.7414C13.7443 13.7414 13.7482 13.7394 13.752 13.7379C13.7683 13.7312 13.8046 13.7197 13.877 13.7099C14.035 13.6887 14.2555 13.6875 14.625 13.6875H15.375C15.7444 13.6875 15.9649 13.6887 16.123 13.7099C16.1954 13.7197 16.2317 13.7312 16.248 13.7379C16.2518 13.7394 16.2557 13.7414 16.2557 13.7414L16.2576 13.7424L16.2586 13.7443C16.2586 13.7443 16.2606 13.7482 16.2621 13.752C16.2688 13.7683 16.2803 13.8046 16.2901 13.877C16.3113 14.035 16.3125 14.2555 16.3125 14.625C16.3125 15.1712 16.3113 15.5243 16.2763 15.7845C16.2435 16.0285 16.1905 16.1049 16.1477 16.1477C16.1049 16.1906 16.0285 16.2435 15.7845 16.2763C15.5243 16.3113 15.1712 16.3125 14.625 16.3125C14.2555 16.3125 14.035 16.3113 13.877 16.2901C13.8046 16.2803 13.7683 16.2688 13.752 16.2621L13.7485 16.2606C13.7466 16.2598 13.7443 16.2586 13.7443 16.2586ZM8.59144 11.4375H9.40855C9.73317 11.4376 10.0308 11.4376 10.2729 11.405C10.5395 11.3692 10.8213 11.2849 11.053 11.0531C11.2849 10.8213 11.3692 10.5395 11.405 10.2729C11.4376 10.0308 11.4376 9.7332 11.4375 9.40853V8.59148C11.4376 8.2668 11.4376 7.9692 11.405 7.7271C11.3692 7.46047 11.2849 7.1787 11.053 6.94695C10.8213 6.71513 10.5395 6.63083 10.2729 6.59498C10.0308 6.56243 9.73317 6.56243 9.40856 6.5625H9.33797C8.83933 6.5625 8.40968 6.56243 8.06562 6.6087C7.69689 6.65828 7.34344 6.7701 7.05676 7.05675C6.77007 7.34348 6.65828 7.69688 6.60871 8.06565C6.56245 8.40968 6.56247 8.83935 6.5625 9.33795V9.40853C6.56246 9.7332 6.56243 10.0308 6.59498 10.2729C6.63082 10.5395 6.71515 10.8213 6.94692 11.0531C7.17869 11.2849 7.46048 11.3692 7.72709 11.405C7.96921 11.4376 8.26683 11.4376 8.59144 11.4375ZM7.74425 10.2586L7.74243 10.2576L7.74139 10.2557C7.74139 10.2557 7.73942 10.2518 7.73787 10.248C7.73115 10.2317 7.71968 10.1954 7.70994 10.123C7.68869 9.96495 7.6875 9.74445 7.6875 9.375C7.6875 8.82878 7.68869 8.47568 7.72367 8.2155C7.75648 7.97153 7.80943 7.8951 7.85225 7.85228C7.89507 7.80945 7.97154 7.7565 8.21552 7.72365C8.47568 7.6887 8.82877 7.6875 9.375 7.6875C9.74446 7.6875 9.96496 7.6887 10.123 7.70993C10.1954 7.71968 10.2317 7.73115 10.248 7.7379C10.2518 7.7394 10.2557 7.74143 10.2557 7.74143L10.2576 7.7424L10.2586 7.74428C10.2586 7.74428 10.2606 7.74818 10.2621 7.752C10.2688 7.76828 10.2803 7.80458 10.2901 7.87703C10.3113 8.03505 10.3125 8.25555 10.3125 8.625V9.375C10.3125 9.74445 10.3113 9.96495 10.2901 10.123C10.2803 10.1954 10.2688 10.2317 10.2621 10.248C10.2606 10.2518 10.2586 10.2557 10.2586 10.2557L10.2576 10.2576L10.2557 10.2586C10.2557 10.2586 10.2518 10.2606 10.248 10.2621C10.2317 10.2689 10.1954 10.2803 10.123 10.2901C9.96496 10.3113 9.74446 10.3125 9.375 10.3125H8.625C8.25554 10.3125 8.03504 10.3113 7.87699 10.2901C7.80458 10.2803 7.76831 10.2689 7.75198 10.2621C7.74819 10.2606 7.74425 10.2586 7.74425 10.2586ZM14.5915 11.4375H15.4085C15.7332 11.4376 16.0308 11.4376 16.2729 11.405C16.5395 11.3692 16.8213 11.2849 17.053 11.0531C17.2849 10.8213 17.3692 10.5395 17.405 10.2729C17.4376 10.0308 17.4376 9.7332 17.4375 9.40853V9.33795C17.4375 8.83935 17.4376 8.40968 17.3913 8.06565C17.3417 7.69688 17.2299 7.34348 16.9432 7.05675C16.6565 6.7701 16.3031 6.65828 15.9343 6.6087C15.5903 6.56243 15.1606 6.5625 14.662 6.5625H14.5915C14.2668 6.56243 13.9692 6.56243 13.7271 6.59498C13.4605 6.63083 13.1787 6.71513 12.9469 6.94695C12.7151 7.1787 12.6308 7.46047 12.595 7.7271C12.5624 7.9692 12.5624 8.2668 12.5625 8.59148V9.40853C12.5624 9.7332 12.5624 10.0308 12.595 10.2729C12.6308 10.5395 12.7151 10.8213 12.9469 11.0531C13.1787 11.2849 13.4605 11.3692 13.7271 11.405C13.9692 11.4376 14.2668 11.4376 14.5915 11.4375ZM13.7443 10.2586L13.7425 10.2577L13.7414 10.2557L13.7399 10.2527C13.7399 10.2527 13.7386 10.2499 13.7379 10.248C13.7311 10.2317 13.7197 10.1954 13.7099 10.123C13.6887 9.96495 13.6875 9.74445 13.6875 9.375V8.625C13.6875 8.25555 13.6887 8.03505 13.7099 7.87703C13.7197 7.80458 13.7311 7.76828 13.7379 7.752C13.7387 7.74998 13.7401 7.74698 13.7401 7.74698L13.7414 7.74428L13.7424 7.7424L13.7443 7.74143C13.7443 7.74143 13.7482 7.7394 13.752 7.7379C13.7683 7.73115 13.8046 7.71968 13.877 7.70993C14.035 7.6887 14.2555 7.6875 14.625 7.6875C15.1712 7.6875 15.5243 7.6887 15.7845 7.72365C16.0285 7.7565 16.1049 7.80945 16.1477 7.85228C16.1905 7.8951 16.2435 7.97153 16.2763 8.2155C16.3113 8.47568 16.3125 8.82878 16.3125 9.375C16.3125 9.74445 16.3113 9.96495 16.2901 10.123C16.2803 10.1954 16.2688 10.2317 16.2621 10.248C16.2606 10.2518 16.2586 10.2557 16.2586 10.2557L16.2576 10.2576L16.2557 10.2586C16.2557 10.2586 16.2518 10.2606 16.248 10.2621C16.2317 10.2689 16.1954 10.2803 16.123 10.2901C15.9649 10.3113 15.7444 10.3125 15.375 10.3125H14.625C14.2555 10.3125 14.035 10.3113 13.877 10.2901C13.8046 10.2803 13.7683 10.2689 13.752 10.2621C13.7482 10.2606 13.7443 10.2586 13.7443 10.2586ZM4.5 11.0625C4.81066 11.0625 5.0625 10.8107 5.0625 10.5C5.0625 9.0699 5.06369 8.05388 5.16732 7.2831C5.26877 6.5286 5.45902 6.09383 5.77643 5.77643C6.09383 5.45903 6.52857 5.26875 7.28314 5.16735C8.05388 5.0637 9.06988 5.0625 10.5 5.0625C10.8106 5.0625 11.0625 4.81065 11.0625 4.5C11.0625 4.18935 10.8106 3.9375 10.5 3.9375H10.4577C9.07937 3.9375 7.98764 3.9375 7.13324 4.05233C6.25392 4.1706 5.54221 4.41968 4.98093 4.9809C4.41966 5.5422 4.17057 6.25395 4.05236 7.13325C3.93748 7.98765 3.93749 9.07935 3.9375 10.4577V10.5C3.9375 10.8107 4.18934 11.0625 4.5 11.0625ZM19.5 11.0625C19.8106 11.0625 20.0625 10.8107 20.0625 10.5V10.4577C20.0625 9.07935 20.0625 7.98765 19.9477 7.13325C19.8294 6.25395 19.5803 5.5422 19.0191 4.9809C18.4578 4.41968 17.746 4.1706 16.8667 4.05233C16.0123 3.9375 14.9206 3.9375 13.5423 3.9375H13.5C13.1893 3.9375 12.9375 4.18935 12.9375 4.5C12.9375 4.81065 13.1893 5.0625 13.5 5.0625C14.9301 5.0625 15.9461 5.0637 16.7169 5.16735C17.4714 5.26875 17.9062 5.45903 18.2236 5.77643C18.541 6.09383 18.7312 6.5286 18.8326 7.2831C18.9363 8.05388 18.9375 9.0699 18.9375 10.5C18.9375 10.8107 19.1893 11.0625 19.5 11.0625Z" fill="white"/>
</g>
</svg>

<svg xmlns="http://www.w3.org/2000/svg" width="24" height="24" fill="none"><path fill="#fff" fill-rule="evenodd" d="M10.458 20.063h.042a.563.563 0 0 0 0-1.125c-1.43 0-2.446-.002-3.217-.105-.754-.102-1.19-.292-1.507-.61-.317-.317-.507-.752-.609-1.506-.103-.77-.104-1.787-.104-3.217a.563.563 0 0 0-1.125 0v.042c0 1.379 0 2.47.114 3.325.119.88.368 1.59.929 2.152.561.561 1.273.81 2.152.929.855.114 1.946.114 3.325.114m6.259-1.23c-.77.103-1.787.105-3.217.105a.562.562 0 1 0 0 1.125h.042c1.379 0 2.47 0 3.325-.115.879-.119 1.59-.368 2.152-.929.561-.561.81-1.273.929-2.152.114-.855.114-1.946.114-3.325V13.5a.563.563 0 0 0-1.125 0c0 1.43 0 2.446-.104 3.217-.102.754-.292 1.19-.61 1.507-.317.317-.752.507-1.506.609m-6.594-2.543c-.158.021-.379.023-.748.023-.546 0-.9-.002-1.16-.037-.243-.032-.32-.085-.363-.128s-.096-.12-.128-.364c-.035-.26-.037-.613-.037-1.159 0-.37.002-.59.023-.748a.5.5 0 0 1 .031-.133l.001-.002h.002l.008-.004a.5.5 0 0 1 .125-.028c.158-.021.379-.023.748-.023h.75c.37 0 .59.002.748.023a.5.5 0 0 1 .133.031l.002.001v.002l.004.008a.5.5 0 0 1 .028.125c.021.158.023.378.023.748v.75c0 .37-.002.59-.023.748a.5.5 0 0 1-.028.125l-.001.003-.002.005-.001.002h-.002l-.008.004a.5.5 0 0 1-.125.028m.15 1.115c.267-.036.548-.12.78-.352s.316-.514.352-.78c.033-.242.033-.54.033-.864v-.818c0-.324 0-.622-.033-.864-.036-.267-.12-.548-.352-.78s-.514-.316-.78-.352a7 7 0 0 0-.864-.033H8.59c-.324 0-.622 0-.864.033-.267.036-.548.12-.78.352s-.316.514-.352.78c-.033.242-.033.54-.032.864v.071c0 .499 0 .928.046 1.272.05.37.161.723.448 1.01.286.286.64.398 1.009.447.344.047.773.047 1.272.047h.071c.324 0 .622 0 .864-.033m4.319.032h.07c.499 0 .928 0 1.272-.046.37-.05.723-.161 1.01-.448.286-.286.398-.64.447-1.009.047-.344.047-.773.047-1.272v-.07c0-.325 0-.623-.033-.865-.036-.267-.12-.548-.352-.78s-.514-.316-.78-.352a7 7 0 0 0-.864-.033h-.818c-.324 0-.622 0-.864.033-.267.036-.548.12-.78.352s-.316.514-.352.78c-.033.242-.033.54-.033.864v.818c0 .324 0 .622.033.864.036.267.12.548.352.78s.514.316.78.352c.242.033.54.032.864.032m-.848-1.178-.002-.001v-.002l-.004-.008a.5.5 0 0 1-.028-.125c-.021-.158-.023-.379-.023-.748v-.75c0-.37.002-.59.023-.748a.5.5 0 0 1 .028-.125l.003-.008.001-.002h.002l.008-.004a.5.5 0 0 1 .125-.028c.158-.021.378-.023.748-.023h.75c.37 0 .59.002.748.023a.5.5 0 0 1 .133.031l.002.001v.002l.004.008a.5.5 0 0 1 .028.125c.021.158.023.378.023.748 0 .546-.002.9-.037 1.16-.032.244-.085.32-.128.363s-.12.096-.364.128c-.26.035-.613.037-1.159.037-.37 0-.59-.002-.748-.023a.5.5 0 0 1-.125-.028l-.004-.001zm-5.153-4.821h.818c.324 0 .622 0 .864-.033.267-.036.548-.12.78-.352s.316-.514.352-.78c.033-.242.033-.54.033-.864V8.59c0-.324 0-.622-.033-.864-.036-.267-.12-.548-.352-.78s-.514-.316-.78-.352a7 7 0 0 0-.864-.032h-.071c-.499 0-.928 0-1.272.046-.37.05-.723.161-1.01.448-.286.286-.398.64-.447 1.009-.047.344-.047.773-.046 1.272v.07c0 .325 0 .623.032.865.036.267.12.548.352.78s.513.316.78.352c.242.033.54.033.864.033m-.847-1.18h-.002v-.002l-.004-.008a.5.5 0 0 1-.028-.125c-.021-.158-.022-.379-.022-.748 0-.546 0-.9.036-1.16.032-.243.085-.32.128-.363s.12-.096.364-.128c.26-.035.613-.037 1.159-.037.37 0 .59.002.748.023a.5.5 0 0 1 .133.031l.002.001v.002l.004.008a.5.5 0 0 1 .028.125c.021.158.023.379.023.748v.75c0 .37-.002.59-.023.748a.5.5 0 0 1-.028.125l-.003.008-.001.002h-.002l-.008.004a.5.5 0 0 1-.125.028c-.158.021-.379.023-.748.023h-.75c-.37 0-.59-.002-.748-.023a.5.5 0 0 1-.125-.028zm6.848 1.18h.816c.325 0 .623 0 .865-.033.267-.036.548-.12.78-.352s.316-.514.352-.78c.033-.242.033-.54.032-.864v-.071c0-.499 0-.928-.046-1.272-.05-.37-.161-.723-.448-1.01-.287-.286-.64-.398-1.009-.447-.344-.047-.773-.046-1.272-.046h-.07c-.325 0-.623 0-.865.032-.267.036-.548.12-.78.352s-.316.513-.352.78c-.033.242-.033.54-.033.864v.818c0 .324 0 .622.033.864.036.267.12.548.352.78s.514.316.78.352c.242.033.54.033.864.033m-.848-1.18h-.002v-.002l-.002-.003-.002-.005a.5.5 0 0 1-.028-.125c-.021-.158-.023-.379-.023-.748v-.75c0-.37.002-.59.023-.748a.5.5 0 0 1 .028-.125l.002-.005.001-.003.001-.002h.002l.008-.004a.5.5 0 0 1 .125-.028c.158-.021.378-.022.748-.022.546 0 .9 0 1.16.036.244.032.32.085.363.128s.096.12.128.364c.035.26.037.613.037 1.159 0 .37-.002.59-.023.748a.5.5 0 0 1-.028.125l-.003.008-.001.002h-.002l-.008.004a.5.5 0 0 1-.125.028c-.158.021-.379.023-.748.023h-.75c-.37 0-.59-.002-.748-.023a.5.5 0 0 1-.125-.028zm-9.244.805c.31 0 .563-.252.563-.563 0-1.43 0-2.446.104-3.217.102-.754.292-1.19.61-1.507.317-.317.752-.507 1.506-.609.77-.103 1.787-.104 3.217-.104a.563.563 0 0 0 0-1.125h-.042c-1.379 0-2.47 0-3.325.114-.88.119-1.59.368-2.152.929-.561.561-.81 1.273-.929 2.152-.115.855-.115 1.946-.114 3.325v.042c0 .31.251.563.562.563m15 0c.31 0 .563-.252.563-.563v-.042c0-1.379 0-2.47-.115-3.325-.119-.88-.368-1.59-.929-2.152-.561-.561-1.273-.81-2.152-.929-.855-.114-1.946-.114-3.325-.114H13.5a.562.562 0 1 0 0 1.124c1.43 0 2.446.002 3.217.105.754.102 1.19.292 1.507.61.317.317.507.752.609 1.506.103.77.105 1.787.105 3.217 0 .31.251.563.562.563" clip-rule="evenodd"/></svg>
